svgs/sharp-regular/boxes-stacked.svg

<svg xmlns="http://www.w3.org/2000/svg" viewBox="0 0 576 512"><!--! Font Awesome Pro 6.6.0 by @fontawesome - https://fontawesome.com License - https://fontawesome.com/license (Commercial License) Copyright 2024 Fonticons, Inc. --><path d="M400 48l0 144 48 0 0-144 0-48L400 0 176 0 128 0l0 48 0 144 48 0 0-144 72 0 0 80 80 0 0-80 72 0zM352 512l176 0 48 0 0-48 0-192 0-48-48 0-176 0 0 48 24 0 0 80 80 0 0-80 72 0 0 192-176 0 0 48zM272 272l0 192L48 464l0-192 72 0 0 80 80 0 0-80 72 0zM48 224L0 224l0 48L0 464l0 48 48 0 224 0 48 0 0-48 0-192 0-48-48 0L48 224z"/></svg>

<svg xmlns="http://www.w3.org/2000/svg" viewBox="0 0 576 512"><!--! Font Awesome Pro 6.4.2 by @fontawesome - https://fontawesome.com License - https://fontawesome.com/license (Commercial License) Copyright 2023 Fonticons, Inc. --><path d="M400 48V192h48V48 0H400 176 128V48 192h48V48h72v80h80V48h72zM352 512H528h48V464 272 224H528 352v48h24v80h80V272h72V464H352v48zM272 272V464H48V272h72v80h80V272h72zM48 224H0v48V464v48H48 272h48V464 272 224H272 48z"/></svg>
